!!!!SEGMENT: pl-kozmzk--mzk-m-346--019_walczynski-franciszek--cantantibus-organis-andante-con-moto.krn
!!!cenid: 18xx:2814
!!!COM: Walczyński, Franciszek
!!!COM-rismid: pe30021989
!!!CDT: ~1852-1937
!!!CNT: Polish
!!!OTL: Cantantibus organis – Andante con moto
!!!PDT: 1898
!!!AGN: Secular
!!!SMS-siglum: PL-KOZmzk
!!!SMS-shelfmark: mzk/m/346
!!!SMS-shelfwork: 019 G
!!!SMS-variant:
!!!SMS-altvar:
!!!NIFC-rismid: 1001109109
!!!URL-scan: https://repozytorium.nifc.pl/islandora/object/pl-kozmzk%3A7453/datastream/PDF/view
!!!ONB-nifc:
**kern	**kern	**dynam
*part1	*part1	*part1
*staff2	*staff1	*
*I"Organo	*I"Organo	*
*clefF4	*clefG2	*
*k[f#c#]	*k[f#c#]	*
*b:	*b:	*
*M4/4	*M4/4	*
*met(c)	*met(c)	*
=1	=1	=1
*^	*^	*
!LO:TX:b:i:t=Ped.	!	!	!	!
1rd	8BB'\L	1re	1rff	.
.	8C#'\	.	.	.
.	8D'\	.	.	.
.	8E#X'\J	.	.	.
.	8F#'\L	.	.	.
.	8A#X'\	.	.	.
.	8B'\	.	.	.
.	8c#'\J	.	.	.
*v	*v	*	*	*
*	*v	*v	*
=2	=2	=2
4d^<\	2r	.
4G^<\	.	.
!LO:TX:t=P:problem:drugie p u dołu systemu	!	!
2F#^<\	2c#^>/ 2f# 2a#X	p
=3	=3	=3
*^	*^	*
!	!	!	!	!LO:DY:b=2
1rd	8FF#'\L	1re	1rff	f
.	8GG'\	.	.	.
.	8AA#X'\	.	.	.
.	8BB'\J	.	.	.
.	8C#'\L	.	.	.
.	8D'\	.	.	.
.	8E'\	.	.	.
.	8G'\J	.	.	.
*v	*v	*	*	*
=4	=4	=4	=4
4F#^<\	2r	2ryy	.
4C#^<\	.	.	.
!LO:TX:t=P:problem:drugie p u dołu systemu	!	!	!
2D^<\	2f#/ 2b	2B\	p
=5	=5	=5	=5
*^	*	*	*
!	!	!	!	!LO:DY:a
(4.B/	2D#X\	(8b/L	4.f#\	fp
.	.	8ccn/	.	.
.	.	8b/	.	.
8cn/	.	8f#/J	8d#X\	.
4B/	2E\	8a/L	8f#\L	.
.	.	8g/	8e\	.
8A/L	.	8f#/	8d#\	.
8G/J)	.	8e/J	8e\J	.
=6	=6	=6	=6	=6
(4.F#/	(4F#\	4dn/	4.B\	.
.	4FF#\	4c#/	.	.
8E/	.	.	8A#X\	.
2D/)	2GG\)	2B/)	2B\	.
=7	=7	=7	=7	=7
!!LO:LB:g=original
(8BB/L	1r	(8B/L	1r	.
8C#/	.	8c#/	.	.
8D/	.	8d/	.	.
8E#X/J	.	8e#X/J	.	.
8F#/L	.	8f#/L	.	.
8A#X/	.	8a#X/	.	.
8B/	.	8b/	.	.
8d/J	.	8dd/J	.	.
=8	=8	=8	=8	=8
4f#/	2r	4ff#/	2r	.
4g/)	.	4gg/)	.	.
!LO:TX:t=P:problem:drugie p u dołu systemu	!	!	!	!
2c#/	(4F#\	(2a#X/	2f#\	p
.	4E\	.	.	.
=9	=9	=9	=9	=9
!	!	!	!	!LO:DY:a
2cn/	2D#X\	2an/	2f#\	f
!	!	!	!	!LO:HP:a
4B/)	2E\	4g/	2e\	>
4G/	.	4e/)	.	]
=10	=10	=10	=10	=10
!	!	!	!	!LO:DY:a
(8E#X/L	1r	(8e#X/L	1r	ff
8F#/	.	8f#/	.	.
8A#X/	.	8a#X/	.	.
8B/J	.	8b/J	.	.
8c#/L	.	8cc#/L	.	.
8d/	.	8dd/	.	.
8B/	.	8b/	.	.
8G/J)	.	8g/J	.	.
=11	=11	=11	=11	=11
!	!	!	!	!LO:DY:a
(2F#/	2r	2.f#/	2r	p
!LO:TX:b:i:t=Ped.	!	!	!	!
!	!	!	!	!LO:DY:b=2
4A#X/	(2FF#\	.	(2c#\	p
4G/	.	4e/	.	.
*	*	*v	*v	*
=12	=12	=12	=12
1F#)	1BB)	1B)) 1d	.
=13	=13	=13	=13
*	*	*^	*
!	!	!	!	!LO:HP:b=2
!	!	!	!	!LO:DY:a
(2G/	[1BB	(2e/	(2.B\	pp >
4F#/	.	4d/	.	.
4E/	.	4c#/	4A#X\)	.
*v	*v	*	*	*
=14	=14	=14	=14
!	!	!	!LO:DY:a
1BB;<]) 1D	1B;)	1B	] p
*	*v	*v	*
==	==	==
*-	*-	*-
!!!system-decoration: {(s1,s2)}
!!!RDF**kern: > = above
!!!RDF**kern: < = below
!!!ENC: Kamil Watkowski
!!!END: 2021-08-09
